Front-end-Projects/github_page/Images/Icon=Phone.svg

<svg width="47" height="46" viewBox="0 0 47 46" fill="none" xmlns="http://www.w3.org/2000/svg">
<path d="M23.5 0C10.7983 0 0.5 10.2983 0.5 23C0.5 35.7017 10.7983 46 23.5 46C36.2017 46 46.5 35.7017 46.5 23C46.5 10.2983 36.2017 0 23.5 0ZM30.1029 34.1684C23.0419 37.3961 12.0843 16.0942 18.9863 12.4947L21.0045 11.5L24.351 18.0339L22.3538 19.0172C20.2551 20.1422 24.6251 28.6772 26.7717 27.6364L28.7498 26.6685L32.1231 33.1794L30.1029 34.1684V34.1684Z" fill="white"/>
</svg>

<svg xmlns="http://www.w3.org/2000/svg" width="47" height="46" fill="none"><path fill="#fff" d="M23.5 0C10.798 0 .5 10.298.5 23s10.298 23 23 23 23-10.298 23-23-10.298-23-23-23Zm6.603 34.168c-7.061 3.228-18.019-18.074-11.117-21.673l2.018-.995 3.347 6.534-1.997.983c-2.099 1.125 2.271 9.66 4.418 8.62l1.978-.968 3.373 6.51-2.02.99Z"/></svg>
